svgs/deezer.svg

<svg width="24" height="24" viewBox="0 0 24 24" fill="none" xmlns="http://www.w3.org/2000/svg">
<path d="M18.8421 4V5.05263H22V4H18.8421ZM10.4211 6.10526V7.15789H13.5789V6.10526H10.4211ZM18.8421 6.10526V7.15789H22V6.10526H18.8421ZM10.4211 8.21053V9.26316H13.5789V8.21053H10.4211ZM18.8421 8.21053V9.26316H22V8.21053H18.8421ZM2 10.3158V11.3684H5.15789V10.3158H2ZM10.4211 10.3158V11.3684H13.5789V10.3158H10.4211ZM14.6316 10.3158V11.3684H17.7895V10.3158H14.6316ZM18.8421 10.3158V11.3684H22V10.3158H18.8421ZM2 12.4211V13.4737H5.15789V12.4211H2ZM10.4211 12.4211V13.4737H13.5789V12.4211H10.4211ZM14.6316 12.4211V13.4737H17.7895V12.4211H14.6316ZM18.8421 12.4211V13.4737H22V12.4211H18.8421ZM2 14.5263V15.5789H5.15789V14.5263H2ZM6.21053 14.5263V15.5789H9.36842V14.5263H6.21053ZM10.4211 14.5263V15.5789H13.5789V14.5263H10.4211ZM14.6316 14.5263V15.5789H17.7895V14.5263H14.6316ZM18.8421 14.5263V15.5789H22V14.5263H18.8421ZM2 16.6316V17.6842H5.15789V16.6316H2ZM6.21053 16.6316V17.6842H9.36842V16.6316H6.21053ZM10.4211 16.6316V17.6842H13.5789V16.6316H10.4211ZM14.6316 16.6316V17.6842H17.7895V16.6316H14.6316ZM18.8421 16.6316V17.6842H22V16.6316H18.8421ZM2 18.7368V19.7895H5.15789V18.7368H2ZM6.21053 18.7368V19.7895H9.36842V18.7368H6.21053ZM10.4211 18.7368V19.7895H13.5789V18.7368H10.4211ZM14.6316 18.7368V19.7895H17.7895V18.7368H14.6316ZM18.8421 18.7368V19.7895H22V18.7368H18.8421Z" fill="black"/>
</svg>

<svg xmlns="http://www.w3.org/2000/svg" width="24" height="24" fill="none" viewBox="0 0 24 24"><path fill="#000" d="M18.842 4v1.053H22V4zm-8.42 2.105v1.053h3.157V6.105H10.42m8.42 0v1.053H22V6.105h-3.158m-8.42 2.106v1.052h3.157V8.211H10.42m8.42 0v1.052H22V8.211h-3.158M2 10.316v1.052h3.158v-1.052zm8.421 0v1.052h3.158v-1.052H10.42m4.21 0v1.052h3.159v-1.052h-3.158m4.211 0v1.052H22v-1.052zM2 12.42v1.053h3.158V12.42zm8.421 0v1.053h3.158V12.42H10.42m4.21 0v1.053h3.159V12.42h-3.158m4.211 0v1.053H22V12.42zM2 14.526v1.053h3.158v-1.053zm4.21 0v1.053h3.158v-1.053H6.211m4.211 0v1.053h3.158v-1.053h-3.16m4.21 0v1.053h3.159v-1.053h-3.158m4.211 0v1.053H22v-1.053zM2 16.632v1.052h3.158v-1.052zm4.21 0v1.052h3.158v-1.052H6.211m4.211 0v1.052h3.158v-1.052h-3.16m4.21 0v1.052h3.159v-1.052h-3.158m4.211 0v1.052H22v-1.052zM2 18.737v1.053h3.158v-1.053zm4.21 0v1.053h3.158v-1.053H6.211m4.211 0v1.053h3.158v-1.053h-3.16m4.21 0v1.053h3.159v-1.053h-3.158m4.211 0v1.053H22v-1.053z"/></svg>
